!!!!SEGMENT: pl-sa--l-1643--036_anonim--amavit-eum-dominus.krn
!!!cenid: 16xx:1395
!!!COM: Anonim
!!!COM-rismID: pe30004985
!!!CDT:
!!!CNT:
!!!OTL: Amavit eum Dominus
!!!PDT:
!!!AGN: Sacred
!!!SMS-siglum: PL-SA
!!!SMS-shelfmark: L 1643
!!!SMS-shelfwork: 036 W
!!!SMS-variant:
!!!SMS-altvar:
!!!NIFC-rismSourceID: 1001063196
!!!NIFC-rismChildID: 1001063196
!!!NIFC-islandoraID:
!!!URL-pdf-islandora:
!!!URL-scan:
!!!ONB-nifc: UWAGA: 8 ksiąg. Primi chori: 1mus Cantus (68-69), C 2dus (68-69), C 3tius (66-67), Bassus (64-65); Secondi chori: Primus Cantus (65), C 2dus (68), Altus (66), Bassus (66). UWAGA: metrum 2/2 i 3/2. Nie dodawać pustych linii, chyba że w rękopisie pojawiają się dodatkowe oznaczenia dotyczące pełnej obsady (a 4, a 8 itp.)
!!!AIN: 8 empty
!!!key:
**kern	**text	**kern	**text	**kern	**text	**kern	**text	**kern	**text	**kern	**text	**kern	**text	**kern	**text
*group2	*	*group2	*	*group2	*	*group2	*	*group1	*	*group1	*	*group1	*	*group1	*
*part8	*part8	*part7	*part7	*part6	*part6	*part5	*part5	*part4	*part4	*part3	*part3	*part2	*part2	*part1	*part1
*staff8	*staff8	*staff7	*staff7	*staff6	*staff6	*staff5	*staff5	*staff4	*staff4	*staff3	*staff3	*staff2	*staff2	*staff1	*staff1
*Iempty	*	*Iempty	*	*Iempty	*	*Iempty	*	*Iempty	*	*Iempty	*	*Iempty	*	*Iempty	*
*I"Baſsus 2di Chori.	*	*I"Altus secundi Chori.	*	*I"Cantus 2dus Secundi Chori.	*	*I"Primus Cantus 2di Chori	*	*I"Bassus Primi Chori.	*	*I"Cantus 3tius Primi Chori	*	*I"Cantus 2dus Primi Chori.	*	*I"Im(us) Cantus Primi Chori	*
*I'[Coro 2 B]	*	*I'[Coro 2 A]	*	*I'[Coro 2 S 2]	*	*I'[Coro 2 S 1]	*	*I'[Coro 1 B]	*	*I'[Coro 1 S 3]	*	*I'[Coro 1 S 2]	*	*I'[Coro 1 S 1]	*
*clefC3	*	*clefC2	*	*clefC1	*	*clefG2	*	*clefC3	*	*clefC2	*	*clefC1	*	*clefG2	*
*k[b-]	*	*k[b-]	*	*k[b-]	*	*k[b-]	*	*k[b-]	*	*k[b-]	*	*k[b-]	*	*k[b-]	*
*F:	*	*F:	*	*F:	*	*F:	*	*F:	*	*F:	*	*F:	*	*F:	*
*M2/2	*	*M2/2	*	*M2/2	*	*M2/2	*	*M2/2	*	*M2/2	*	*M2/2	*	*M2/2	*
*met(C|)	*	*met(C|)	*	*met(C|)	*	*met(C|)	*	*met(C|)	*	*met(C|)	*	*met(C|)	*	*met(O|)	*
=1-	=1-	=1-	=1-	=1-	=1-	=1-	=1-	=1-	=1-	=1-	=1-	=1-	=1-	=1-	=1-
00r	.	00r	.	00r	.	00r	.	1f	A-	1f	A-	1f	A-	2.f/	A-
.	.	.	.	.	.	.	.	.	.	.	.	.	.	4g/	.
=2-	=2-	=2-	=2-	=2-	=2-	=2-	=2-	=2-	=2-	=2-	=2-	=2-	=2-	=2-	=2-
.	.	.	.	.	.	.	.	2f\	-ma-	2f\	-ma-	2f/	-ma-	2a/	-ma-
.	.	.	.	.	.	.	.	2d\	-vit	2f\	-vit	2f/	-vit	2b-/	-vit
=3-	=3-	=3-	=3-	=3-	=3-	=3-	=3-	=3-	=3-	=3-	=3-	=3-	=3-	=3-	=3-
.	.	.	.	.	.	.	.	2c/	e-	2g\	e-	2cc\	e-	2cc\	e-
.	.	.	.	.	.	.	.	2A/	-um	2a\	-um	2cc\	-um	2cc\	-um
=4-	=4-	=4-	=4-	=4-	=4-	=4-	=4-	=4-	=4-	=4-	=4-	=4-	=4-	=4-	=4-
.	.	.	.	.	.	.	.	2.B-/	Do-	2.f\	Do-	2.b-\	Do-	2.dd\	Do-
.	.	.	.	.	.	.	.	4B-/	-mi-	4g\	-mi-	4b-\	-mi-	4dd\	-mi-
=5-	=5-	=5-	=5-	=5-	=5-	=5-	=5-	=5-	=5-	=5-	=5-	=5-	=5-	=5-	=5-
2r	.	2r	.	2r	.	2r	.	1F	-nus	1a	-nus	1cc	-nus	1cc	-nus
2f\	A-	2f\	A-	2f/	A-	2f/	A-	.	.	.	.	.	.	.	.
=6-	=6-	=6-	=6-	=6-	=6-	=6-	=6-	=6-	=6-	=6-	=6-	=6-	=6-	=6-	=6-
2f\	-ma-	2f\	-ma-	2f/	-ma-	2a/	-ma-	0r	.	0r	.	0r	.	0r	.
2d\	-vit	2f\	-vit	2f/	-vit	2b-/	-vit	.	.	.	.	.	.	.	.
=7-	=7-	=7-	=7-	=7-	=7-	=7-	=7-	=7-	=7-	=7-	=7-	=7-	=7-	=7-	=7-
2c/	e-	2g\	e-	2cc\	e-	2cc\	e-	.	.	.	.	.	.	.	.
!	!	!	!	!	!	!	!LO:MO:P=-um	!	!	!	!	!	!	!	!
2A/	-um	2a\	-um	2cc\	-um	2cc\	-am	.	.	.	.	.	.	.	.
=8-	=8-	=8-	=8-	=8-	=8-	=8-	=8-	=8-	=8-	=8-	=8-	=8-	=8-	=8-	=8-
2.B-/	Do-	2.f\	Do-	2.b-\	Do-	2.dd\	Do-	1r	.	1r	.	1r	.	1r	.
4B-/	-mi-	4g\	-mi-	4b-\	-mi-	4dd\	-mi-	.	.	.	.	.	.	.	.
=9-	=9-	=9-	=9-	=9-	=9-	=9-	=9-	=9-	=9-	=9-	=9-	=9-	=9-	=9-	=9-
1F	-nus	1a	-nus	1cc	-nus	1cc	-nus	2r	.	2r	.	2r	.	2r	.
.	.	.	.	.	.	.	.	4f\	et	4a\	et	4cc\	et	4ff\	et
.	.	.	.	.	.	.	.	4f\	or-	4a\	or-	4cc\	or-	4ff\	or-
=10-	=10-	=10-	=10-	=10-	=10-	=10-	=10-	=10-	=10-	=10-	=10-	=10-	=10-	=10-	=10-
0r	.	0r	.	0r	.	0r	.	2f\	-na-	2a\	-na-	2dd\	-na-	2dd\	-na-
.	.	.	.	.	.	.	.	2e\	-vit	2g\	-vit	2.cc\	.	2ee\	-vit
=11-	=11-	=11-	=11-	=11-	=11-	=11-	=11-	=11-	=11-	=11-	=11-	=11-	=11-	=11-	=11-
.	.	.	.	.	.	.	.	1d	e-	2a\	e-	.	.	1ff	e-
.	.	.	.	.	.	.	.	.	.	.	.	8b-\L	-vit	.	.
.	.	.	.	.	.	.	.	.	.	.	.	8a\J	.	.	.
!	!	!	!	!	!	!	!	!	!	!	!	!LO:TX:b:t=P:problem=# below	!	!	!
!	!	!	!	!	!	!	!	!	!	!	!	!LO:N:acc=#	!	!	!
.	.	.	.	.	.	.	.	.	.	2f\	.	2bn\	e-	.	.
=12-	=12-	=12-	=12-	=12-	=12-	=12-	=12-	=12-	=12-	=12-	=12-	=12-	=12-	=12-	=12-
2r	.	2r	.	2r	.	2r	.	1c	-um	1g	-um	1cc	-um	1ee	-um
4c/	et	4g\	et	4cc\	et	4ee\	et	.	.	.	.	.	.	.	.
4c/	or-	4a\	.	4cc\	.	4ee\	or-	.	.	.	.	.	.	.	.
=13-	=13-	=13-	=13-	=13-	=13-	=13-	=13-	=13-	=13-	=13-	=13-	=13-	=13-	=13-	=13-
2B-/	-na-	2b-\	or-	2dd\	or-	2dd\	-na-	00r	.	00r	.	0r	.	0r	.
2c/	-vit	2g\	-na-	4cc\	-na-	2ee\	-vit	.	.	.	.	.	.	.	.
.	.	.	.	4b-\	.	.	.	.	.	.	.	.	.	.	.
=14-	=14-	=14-	=14-	=14-	=14-	=14-	=14-	=14-	=14-	=14-	=14-	=14-	=14-	=14-	=14-
2.d\	e-	2.f\	-vit	2a\	-vit	2.ff\	e-	.	.	.	.	.	.	.	.
.	.	.	.	2.b-\	e-	.	.	.	.	.	.	.	.	.	.
4e\	.	4g\	e-	.	.	8ee\L	.	.	.	.	.	.	.	.	.
.	.	.	.	.	.	8dd\J	.	.	.	.	.	.	.	.	.
=15-	=15-	=15-	=15-	=15-	=15-	=15-	=15-	=15-	=15-	=15-	=15-	=15-	=15-	=15-	=15-
1f	.	1f	-um	.	.	1cc	.	.	.	.	.	1r	.	1r	.
.	.	.	.	8a\L	.	.	.	.	.	.	.	.	.	.	.
.	.	.	.	8g\J	.	.	.	.	.	.	.	.	.	.	.
.	.	.	.	2a\	.	.	.	.	.	.	.	.	.	.	.
*	*	*	*	*	*	*	*	*	*	*	*	*custos:b-	*	*	*
!	!	!	!	!	!	!	!	!	!	!	!	!LO:LB:g=original	!	!	!
=16-	=16-	=16-	=16-	=16-	=16-	=16-	=16-	=16-	=16-	=16-	=16-	=16-	=16-	=16-	=16-
1B-	-um	1f	.	1b-	-um	1dd	-um	.	.	.	.	2r	.	2r	.
.	.	.	.	.	.	.	.	.	.	.	.	4b-y\	et	4dd\	et
.	.	.	.	.	.	.	.	.	.	.	.	4b-\	or-	4dd\	or-
*	*	*	*	*	*	*	*	*	*	*	*	*	*	*custos:b-	*
!	!	!	!	!	!	!	!	!	!	!	!	!	!	!LO:LB:g=original	!
=17-	=17-	=17-	=17-	=17-	=17-	=17-	=17-	=17-	=17-	=17-	=17-	=17-	=17-	=17-	=17-
00r	.	00r	.	00r	.	00r	.	1r	.	2r	.	2g/	-na-	2b-/	-na-
.	.	.	.	.	.	.	.	.	.	4g\	et	2g/	-vit	2b-/	-vit
.	.	.	.	.	.	.	.	.	.	4g\	or-	.	.	.	.
=18-	=18-	=18-	=18-	=18-	=18-	=18-	=18-	=18-	=18-	=18-	=18-	=18-	=18-	=18-	=18-
.	.	.	.	.	.	.	.	2r	.	2e/	-na-	2a\	e-	0cc	e-
.	.	.	.	.	.	.	.	4c/	et	2e/	-vit	2g/	-um	.	.
.	.	.	.	.	.	.	.	4c/	or-	.	.	.	.	.	.
=19-	=19-	=19-	=19-	=19-	=19-	=19-	=19-	=19-	=19-	=19-	=19-	=19-	=19-	=19-	=19-
.	.	.	.	.	.	.	.	2A/	-na-	1f	e-	2r	.	.	.
.	.	.	.	.	.	.	.	2A/	-vit	.	.	4cc\	et	.	.
.	.	.	.	.	.	.	.	.	.	.	.	4cc\	or-	.	.
*	*	*	*	*	*	*	*	*custos:c	*	*	*	*	*	*	*
!	!	!	!	!	!	!	!	!LO:LB:g=original	!	!	!	!	!	!	!
=20-	=20-	=20-	=20-	=20-	=20-	=20-	=20-	=20-	=20-	=20-	=20-	=20-	=20-	=20-	=20-
.	.	.	.	.	.	.	.	1B-	e-	2f\	-um	2b-\	-na-	1dd	-um
.	.	.	.	.	.	.	.	.	.	4g\	et	2b-\	-vit	.	.
.	.	.	.	.	.	.	.	.	.	4g\	or-	.	.	.	.
=21-	=21-	=21-	=21-	=21-	=21-	=21-	=21-	=21-	=21-	=21-	=21-	=21-	=21-	=21-	=21-
0r	.	1r	.	2r	.	2r	.	2c/	-um	4e/	-na-	2g/	e-	1r	.
.	.	.	.	.	.	.	.	.	.	4e/	-vit	.	.	.	.
!	!	!	!	!	!	!	!	!	!	!LO:PB:g=original	!	!	!	!	!
.	.	.	.	4a\	et	4cc\	et	2r	.	4.f\	e-	2a\	-um	.	.
.	.	.	.	4a\	or-	4cc\	or-	.	.	.	.	.	.	.	.
.	.	.	.	.	.	.	.	.	.	8g\	.	.	.	.	.
*	*	*	*	*custos:f	*	*	*	*	*	*	*	*	*	*	*
!	!	!	!	!LO:LB:g=original	!	!	!	!	!	!	!	!	!	!	!
=22-	=22-	=22-	=22-	=22-	=22-	=22-	=22-	=22-	=22-	=22-	=22-	=22-	=22-	=22-	=22-
.	.	1ryy	.	1ryy	.	1ryy	.	1ryy	.	1ryy	.	1ryy	.	1ryy	.
=23-	=23-	=23-	=23-	=23-	=23-	=23-	=23-	=23-	=23-	=23-	=23-	=23-	=23-	=23-	=23-
2r	.	2r	.	2f/	-na-	2a/	-na-	2r	.	1a	-um	2r	.	4ff\	et
.	.	.	.	.	.	.	.	.	.	.	.	.	.	4ff\	or-
4c/	et	4a\	et	2f/	-vit	2a/	-vit	4d\	et	.	.	4b-\	et	4dd\	-na-
4c/	or-	4a\	or-	.	.	.	.	4d\	or-	.	.	4b-\	or-	4dd\	-vit
*custos:a	*	*	*	*	*	*custos:b	*	*	*	*	*	*	*	*	*
!LO:LB:g=original	!	!	!	!	!	!LO:LB:g=original	!	!	!	!	!	!	!	!	!
=24-	=24-	=24-	=24-	=24-	=24-	=24-	=24-	=24-	=24-	=24-	=24-	=24-	=24-	=24-	=24-
2A/	-na-	2g\	-na-	1g	e-	2b-/	e-	4G/	-na-	1r	.	2g/	-na-	1.ee	e-
.	.	.	.	.	.	.	.	4G/	-vit	.	.	.	.	.	.
2A/	-vit	2e/	-vit	.	.	2cc\	-um	1c\	e-	.	.	2g/	-vit	.	.
*	*	*custos:e	*	*	*	*	*	*	*	*	*	*	*	*	*
!	!	!LO:LB:g=original	!	!	!	!	!	!	!	!	!	!	!	!	!
=25-	=25-	=25-	=25-	=25-	=25-	=25-	=25-	=25-	=25-	=25-	=25-	=25-	=25-	=25-	=25-
1B-	e-	1e	e-	2a\	-um	4cc\	et	.	.	2r	.	1cc	e-	.	.
.	.	.	.	.	.	4cc\	or-	.	.	.	.	.	.	.	.
.	.	.	.	4cc\	et	2a/	-na-	2F/	-um	4a\	et	.	.	2ff\	-um
.	.	.	.	4cc\	or-	.	.	.	.	4a\	or-	.	.	.	.
=26-	=26-	=26-	=26-	=26-	=26-	=26-	=26-	=26-	=26-	=26-	=26-	=26-	=26-	=26-	=26-
1c	-um	1d	-um	2dd\	-na-	2dd\	-vit	1r	.	2f\	-na-	1b-	-um	2r	.
.	.	.	.	2g/	-vit	2dd\	e-	.	.	2g\	-vit	.	.	4gg\	et
.	.	.	.	.	.	.	.	.	.	.	.	.	.	4gg\	or-
=27-	=27-	=27-	=27-	=27-	=27-	=27-	=27-	=27-	=27-	=27-	=27-	=27-	=27-	=27-	=27-
1r	.	1r	.	2g/	e-	1cc	-um	2r	.	1g	e-	4dd\	et	2ee\	-na-
.	.	.	.	.	.	.	.	.	.	.	.	4dd\	or-	.	.
.	.	.	.	2cc\	-um	.	.	4c/	et	.	.	4g/	-na-	2ee\	-vit
.	.	.	.	.	.	.	.	4c/	or-	.	.	4g/	-vit	.	.
=28-	=28-	=28-	=28-	=28-	=28-	=28-	=28-	=28-	=28-	=28-	=28-	=28-	=28-	=28-	=28-
*	*	*	*	*	*	*	*	*	*	*	*	*lig	*	*	*
!	!	!	!	!	!	!	!	!	!	!	!	!	!	!LO:TX:b:t=P:problem=# below	!
4a\	et	4a\	et	1cc	.	2r	.	2A/	-na-	1a	-um	1cc	e-	1ff#X	e-
4a\	or-	4a\	or-	.	.	.	.	.	.	.	.	.	.	.	.
4d\	-na-	4f\	-na-	.	.	4cc\	et	2A/	-vit	.	.	.	.	.	.
4d\	-vit	4c/	-vit	.	.	4cc\	or-	.	.	.	.	.	.	.	.
=29-	=29-	=29-	=29-	=29-	=29-	=29-	=29-	=29-	=29-	=29-	=29-	=29-	=29-	=29-	=29-
!LO:N:vis=2	!	!	!	!	!	!	!	!	!	!	!	!	!	!	!
1g	e-	1g	e-	2r	.	4b-/	-na-	1G	e-	2d/	e-	1dd	.	1gg	-um
.	.	.	.	.	.	4b-/	-vit	.	.	.	.	.	.	.	.
.	.	.	.	2b-\	e-	2dd\	e-	.	.	2g\	-am	.	.	.	.
*	*	*	*	*	*	*	*	*	*	*	*	*Xlig	*	*	*
*	*	*	*	*	*	*	*	*	*	*	*	*custos:e	*	*	*
!	!	!	!	!	!	!	!	!	!	!	!	!LO:LB:g=original	!	!	!
=30-	=30-	=30-	=30-	=30-	=30-	=30-	=30-	=30-	=30-	=30-	=30-	=30-	=30-	=30-	=30-
1c,>	-um	1g,	-um	1cc	-um	1ee	-um	1c	-um	1g	.	1cc	-um	4ee\	e-
.	.	.	.	.	.	.	.	.	.	.	.	.	.	4ffny\	.
.	.	.	.	.	.	.	.	.	.	.	.	.	.	4gg\	.
.	.	.	.	.	.	.	.	.	.	.	.	.	.	4ee\	.
=31-	=31-	=31-	=31-	=31-	=31-	=31-	=31-	=31-	=31-	=31-	=31-	=31-	=31-	=31-	=31-
1.f	sto-	1.f	Sto-	1.a	Sto-	1.cc	Sto-	1.F	sto-	1.a	sto-	1.cc	sto-	1ff	-um.
*	*	*	*	*	*	*	*	*	*	*	*	*	*	*custos:ff	*
=32-	=32-	=32-	=32-	=32-	=32-	=32-	=32-	=32-	=32-	=32-	=32-	=32-	=32-	=32-	=32-
.	.	.	.	.	.	.	.	.	.	.	.	.	.	2.ff\	sto-
2f\	-la(m)	2c/	-la(m)	2a\	-la(m)	2cc\	-la(m)	2F/	-la(m)	2f\	-la(m)	2a\	-la(m)	.	.
.	.	.	.	.	.	.	.	.	.	.	.	.	.	4ff\	-lam
=33-	=33-	=33-	=33-	=33-	=33-	=33-	=33-	=33-	=33-	=33-	=33-	=33-	=33-	=33-	=33-
2.B-/	glo-	1.f	glo-	2dd\	glo-	2.dd\	glo-	4B-/	glo-	2.f\	glo-	2b-\	.	4dd\	glo-
.	.	.	.	.	.	.	.	4c/	.	.	.	.	.	4ee\	.
.	.	.	.	4cc\	.	.	.	4d\	.	.	.	4f/	glo-	4.ff\	.
8A/L	.	.	.	4b-\	.	8cc\L	.	4e\	.	4d/	.	4g/	.	.	.
8G/J	.	.	.	.	.	8b-\J	.	.	.	.	.	.	.	16ee\LL	.
.	.	.	.	.	.	.	.	.	.	.	.	.	.	16dd\JJ	.
=34-	=34-	=34-	=34-	=34-	=34-	=34-	=34-	=34-	=34-	=34-	=34-	=34-	=34-	=34-	=34-
4F/	.	.	.	4a\	.	4cc\	.	2.f\	.	2.a\	.	4a\	.	2.cc\	.
4G/	.	.	.	4g/	.	4b-/	.	.	.	.	.	4b-\	.	.	.
4A/	.	2c/	-ri-	4a\	.	2a/	.	.	.	.	.	2.cc\	.	.	.
4B-/	.	.	.	4b-\	.	.	.	8e\L	.	8g\L	.	.	.	4dd\	.
.	.	.	.	.	.	.	.	8d\J	.	8f\J	.	.	.	.	.
=35-	=35-	=35-	=35-	=35-	=35-	=35-	=35-	=35-	=35-	=35-	=35-	=35-	=35-	=35-	=35-
2.c/	.	2c,/	-a	2cc\	.	4g/	.	4c/	.	2.e/	.	.	.	4ee\	.
.	.	.	.	.	.	4a/	.	4d\	.	.	.	8b-\L	.	4ff\	.
.	.	.	.	.	.	.	.	.	.	.	.	8a\J	.	.	.
.	.	2g\	sto-	4b-\	.	4b-/	.	4e\	.	.	.	4g/	.	4.gg\	.
8B-/L	.	.	.	4a\	.	4cc\	.	4f\	.	4c/	-ri-	4a\	.	.	.
8A/J	.	.	.	.	.	.	.	.	.	.	.	.	.	16ff\LL	.
.	.	.	.	.	.	.	.	.	.	.	.	.	.	16ee\JJ	.
*	*	*	*	*	*	*custos:d	*	*custos:g	*	*	*	*	*	*	*
!	!	!	!	!	!	!LO:LB:g=original	!	!LO:LB:g=original	!	!	!	!	!	!	!
=36-	=36-	=36-	=36-	=36-	=36-	=36-	=36-	=36-	=36-	=36-	=36-	=36-	=36-	=36-	=36-
4G/	.	1g	-la(m)	2.b-\	.	2dd\	.	2.g\	.	1g	-ae	4b-\	.	2.dd\	.
4A/	.	.	.	.	.	.	.	.	.	.	.	4cc\	.	.	.
4B-/	.	.	.	.	.	4cc\	.	.	.	.	.	2dd\	.	.	.
4c/	.	.	.	8a\L	.	4b-/	.	8f\L	.	.	.	.	.	4ee\	.
.	.	.	.	8g\J	.	.	.	8e\J	.	.	.	.	.	.	.
*	*	*	*	*custos:a	*	*	*	*	*	*custos:f	*	*	*	*	*
!	!	!	!	!LO:LB:g=original	!	!	!	!	!	!LO:LB:g=original	!	!	!	!	!
=37-	=37-	=37-	=37-	=37-	=37-	=37-	=37-	=37-	=37-	=37-	=37-	=37-	=37-	=37-	=37-
4d\	.	1.f	glo-	2a\	-ri-	2a/	.	2.d\	.	4f\	glo-	4cc\	.	2.ff\	.
4e\	.	.	.	.	.	.	.	.	.	4g\	.	4b-\	.	.	.
2f\	.	.	.	2f/	-ae	4dd\	.	.	.	2a\	.	2a\	.	.	.
.	.	.	.	.	.	4ee\	.	4c/	.	.	.	.	.	4ee\	.
*custos:b	*	*	*	*	*	*	*	*	*	*	*	*	*	*	*
!LO:LB:g=original	!	!	!	!	!	!	!	!	!	!	!	!	!	!	!
=38-	=38-	=38-	=38-	=38-	=38-	=38-	=38-	=38-	=38-	=38-	=38-	=38-	=38-	=38-	=38-
4B-/	.	.	.	2b-\	glo-	2.ff\	.	2.B-/	.	4d/	.	2b-\	.	2.dd\	.
4c/	.	.	.	.	.	.	.	.	.	4e/	.	.	.	.	.
4d\	.	2f\	-ri-	4a\	.	.	.	.	.	4f/	.	4f/	.	.	.
4e\	.	.	.	4g/	.	8ee\L	.	8A/L	.	4d/	.	4g/	.	8cc\L	.
.	.	.	.	.	.	8dd\J	.	8G/J	.	.	.	.	.	8b-\J	.
=39-	=39-	=39-	=39-	=39-	=39-	=39-	=39-	=39-	=39-	=39-	=39-	=39-	=39-	=39-	=39-
2.f\	.	2f\	-ae	2.a\	.	1.cc	.	4F/	.	2.a\	.	4a\	.	2cc\	.
.	.	.	.	.	.	.	.	4G/	.	.	.	4b-\	.	.	.
.	.	1c/	glo-	.	.	.	.	4A/	.	.	.	2cc\	.	2.ff\	.
8e\L	.	.	.	4g/	.	.	.	4B-/	.	8g\L	.	.	.	.	.
8d\J	.	.	.	.	.	.	.	.	.	8f\J	.	.	.	.	.
=40-	=40-	=40-	=40-	=40-	=40-	=40-	=40-	=40-	=40-	=40-	=40-	=40-	=40-	=40-	=40-
2.c/	.	.	.	2.cc\	.	.	.	2.c/	.	1g	-ri-	2g/	-ri-	.	.
.	.	.	.	.	.	.	.	.	.	.	.	.	.	8ee\L	.
.	.	.	.	.	.	.	.	.	.	.	.	.	.	8dd\J	.
.	.	2c/	-ri-	.	.	2cc\	-ri-	.	.	.	.	2cc\	.	2ee\	-ri-
4c/	-ri-	.	.	4g/	-ri-	.	.	4c/	-ri-	.	.	.	.	.	.
*	*	*	*	*	*	*	*	*	*	*	*	*	*	*custos:ff	*
!	!	!	!	!	!	!	!	!	!	!	!	!	!	!LO:LB:g=original	!
=41-	=41-	=41-	=41-	=41-	=41-	=41-	=41-	=41-	=41-	=41-	=41-	=41-	=41-	=41-	=41-
1f	-ae	1c	-ae	1a	-ae	1cc	-ae	2F/	-ae	1f	-ae	1cc	-ae	4ff\	-ae
.	.	.	.	.	.	.	.	.	.	.	.	.	.	4ff\	in-
.	.	.	.	.	.	.	.	4r	.	.	.	.	.	4ff\	-du-
.	.	.	.	.	.	.	.	4f\	in-	.	.	.	.	4ff\	-it
*	*	*	*	*	*	*	*	*	*	*	*	*custos:cc	*	*	*
!	!	!	!	!	!	!	!	!	!	!	!	!LO:LB:g=original	!	!	!
=42-	=42-	=42-	=42-	=42-	=42-	=42-	=42-	=42-	=42-	=42-	=42-	=42-	=42-	=42-	=42-
0r	.	0r	.	1r	.	1r	.	4c/	-du-	2r	.	4r	.	4ee\	e-
.	.	.	.	.	.	.	.	4c/	-it	.	.	4cc\	in-	4cc\	-um
.	.	.	.	.	.	.	.	4c/	e-	4r	.	4cc\	-du-	4.ee\	Do-
.	.	.	.	.	.	.	.	4A/	-um	4a\	in-	4cc\	-it	.	.
.	.	.	.	.	.	.	.	.	.	.	.	.	.	8ee\	-mi-
=43-	=43-	=43-	=43-	=43-	=43-	=43-	=43-	=43-	=43-	=43-	=43-	=43-	=43-	=43-	=43-
.	.	.	.	1ryy	.	1ryy	.	1ryy	.	1ryy	.	1ryy	.	1ryy	.
=44-	=44-	=44-	=44-	=44-	=44-	=44-	=44-	=44-	=44-	=44-	=44-	=44-	=44-	=44-	=44-
*	*	*custos:a	*	*	*	*	*	*	*	*	*	*	*	*	*
!	!	!LO:LB:g=original	!	!	!	!	!	!	!	!	!	!	!	!	!
1r	.	4r	.	4r	.	4r	.	4.B-/	Do-	4f\	-du-	4b-\	e-	1dd	-nus
.	.	4a\	in-	4b-\	in-	4dd\	in-	.	.	4f\	-it	4f/	-um	.	.
.	.	.	.	.	.	.	.	8B-/	-mi-	.	.	.	.	.	.
.	.	4a\	-du-	4b-\	-du-	4dd\	-du-	4G/	-nus	4g\	e-	4.b-\	Do-	.	.
.	.	4g\	-it	4b-\	-it	4dd\	-it	4g\	in-	4d/	-um	.	.	.	.
.	.	.	.	.	.	.	.	.	.	.	.	8b-\	-mi-	.	.
=45-	=45-	=45-	=45-	=45-	=45-	=45-	=45-	=45-	=45-	=45-	=45-	=45-	=45-	=45-	=45-
2r	.	4g\	e-	4a\	e-	4cc\	e-	4f\	-du-	4.f\	Do-	2f/	-nus	1r	.
.	.	4g\	-um	4f/	-um	4a/	-um	4f\	-it	.	.	.	.	.	.
.	.	.	.	.	.	.	.	.	.	8f\	-mi-	.	.	.	.
*	*	*	*	*	*	*	*	*custos:f	*	*	*	*	*	*	*
!	!	!	!	!	!	!	!	!LO:LB:g=original	!	!	!	!	!	!	!
4r	.	4.g\	Do-	4.a\	Do-	4.cc\	Do-	4f\	e-	2f\	-nus	2r	.	.	.
4a\	in-	.	.	.	.	.	.	4c/	-um	.	.	.	.	.	.
.	.	8g\	-mi-	8a\	-mi-	8cc\	-mi-	.	.	.	.	.	.	.	.
=46-	=46-	=46-	=46-	=46-	=46-	=46-	=46-	=46-	=46-	=46-	=46-	=46-	=46-	=46-	=46-
4e\	-du-	2a\	-nus	2g/	-nus	1g	-nus	4.g\	Do-	1r	.	2r	.	4r	.
4g\	-it	.	.	.	.	.	.	.	.	.	.	.	.	4gg\	in-
.	.	.	.	.	.	.	.	8g\	-mi-	.	.	.	.	.	.
4g\	e-	2r	.	2r	.	.	.	2c/	-nus	.	.	4r	.	4gg\	-du-
4e\	-um	.	.	.	.	.	.	.	.	.	.	4cc\	in-	4gg\	-it
=47-	=47-	=47-	=47-	=47-	=47-	=47-	=47-	=47-	=47-	=47-	=47-	=47-	=47-	=47-	=47-
4.f\	Do-	2r	.	2r	.	2r	.	4r	.	4r	.	4cc\	-du-	4ff\	e-
.	.	.	.	.	.	.	.	4f\	in-	4a\	in-	4cc\	-it	4dd\	-um
8f\	-mi-	.	.	.	.	.	.	.	.	.	.	.	.	.	.
4B-/	-nus	4r	.	4r	.	4r	.	4f\	-du-	4f\	-du-	4b-\	e-	4.ff\	Do-
4B-/	in-	4f\	in-	4b-\	in-	4dd\	in-	4f\	-it	4d/	-it	4f/	-um	.	.
.	.	.	.	.	.	.	.	.	.	.	.	.	.	8ff\	-mi-
=48-	=48-	=48-	=48-	=48-	=48-	=48-	=48-	=48-	=48-	=48-	=48-	=48-	=48-	=48-	=48-
4c/	-du-	4B-/	-du-	4g/	-du-	4cc\	-du-	4e\	e-	4g\	e-	4.cc\	Do-	2cc\	-nus
4c/	-it	4B-/	-it	4g/	-it	4cc\	-it	4c/	-um	4g\	-um	.	.	.	.
.	.	.	.	.	.	.	.	.	.	.	.	8cc\	-mi-	.	.
4F/	e-	4B-/	e-	4a\	e-	4cc\	e-	4.f\	Do-	4.f\	Do-	2a\	-nus	2.ff\	Do-
4F/	-um	4B-/	-um	4cc\	-um	4a/	-um	.	.	.	.	.	.	.	.
.	.	.	.	.	.	.	.	8f\	-mi-	8f\	-mi-	.	.	.	.
*	*	*	*	*	*	*custos:cc	*	*	*	*	*	*	*	*	*
!	!	!	!	!	!	!LO:LB:g=original	!	!	!	!	!	!	!	!	!
=49-	=49-	=49-	=49-	=49-	=49-	=49-	=49-	=49-	=49-	=49-	=49-	=49-	=49-	=49-	=49-
2.c/	Do-	2.c/	Do-	2.cc\	D(o)-	2.cc\	Do-	2c/	-nus	2g\	-n(us)	2.g/	Do-	.	.
.	.	.	.	.	.	.	.	.	.	.	.	.	.	8ee\L	.
.	.	.	.	.	.	.	.	.	.	.	.	.	.	8dd\J	.
*	*	*	*	*	*	*	*	*	*	*custos:g	*	*	*	*	*
!	!	!	!	!	!	!	!	!	!	!LO:LB:g=original	!	!	!	!	!
.	.	.	.	.	.	.	.	4.c/	Do-	4.g\	Do-	.	.	2ee\	-mi-
!	!	!LO:TX:a:t=upsi	!	!	!	!	!	!	!	!	!	!	!	!	!
4c/	-mi-	4c/	-mi-	4cc\	-(mi)-	4cc\	-mi-	.	.	.	.	4g/	-mi-	.	.
.	.	.	.	.	.	.	.	8c/	-mi-	8g\	-mi-	.	.	.	.
=50-	=50-	=50-	=50-	=50-	=50-	=50-	=50-	=50-	=50-	=50-	=50-	=50-	=50-	=50-	=50-
1f	-nus.	1c	-nus	1a	-n(us)	1cc	-nus	1F	-nus	1f	-nus	1a	-nus.	1ff	-nus.
*custos:f	*	*	*	*custos:c	*	*	*	*	*	*	*	*	*	*custos:ff	*
!LO:LB:g=original	!	!	!	!LO:LB:g=original	!	!	!	!	!	!	!	!	!	!LO:LB:g=original	!
=51||-	=51||-	=51||-	=51||-	=51||-	=51||-	=51||-	=51||-	=51||-	=51||-	=51||-	=51||-	=51||-	=51||-	=51||-	=51||-
*M3/2	*	*M3/2	*	*M3/2	*	*M3/2	*	*M3/2	*	*M3/2	*	*M3/2	*	*M3/2	*
0.r	.	0.r	.	0.r	.	0.r	.	1f	in-	1a	in-	1cc	in-	1ff	in-
.	.	.	.	.	.	.	.	1f\	-du-	1a\	-du-	1a\	-du-	1ff\	-du-
=52-	=52-	=52-	=52-	=52-	=52-	=52-	=52-	=52-	=52-	=52-	=52-	=52-	=52-	=52-	=52-
.	.	.	.	.	.	.	.	.	.	.	.	.	.	.	.
.	.	.	.	.	.	.	.	1c	-it	1g	-it	1cc	-it	1ee	-it
*	*	*	*	*	*	*	*	*	*	*	*	*custos:cc	*	*	*
!	!	!	!	!	!	!	!	!	!	!	!	!LO:LB:g=original	!	!	!
=53-	=53-	=53-	=53-	=53-	=53-	=53-	=53-	=53-	=53-	=53-	=53-	=53-	=53-	=53-	=53-
1f	in-	1f	in-	1cc	in-	1ff	in-	2F/	e-	0f	e-	0cc	e-	0aa	e-
.	.	.	.	.	.	.	.	2G/	.	.	.	.	.	.	.
1f\	-du-	1c/	-du-	1a\	-du-	1ff\	-du-	2A/	.	.	.	.	.	.	.
=54-	=54-	=54-	=54-	=54-	=54-	=54-	=54-	=54-	=54-	=54-	=54-	=54-	=54-	=54-	=54-
.	.	.	.	.	.	.	.	2B-/	.	.	.	.	.	.	.
1c	-it	1c	-it	1cc	-it	1ee	-it	1c	-um	1g	-um	1cc	-um	1gg	-um
*	*	*	*	*	*	*	*	*custos:f	*	*	*	*	*	*	*
!	!	!	!	!	!	!	!	!LO:LB:g=original	!	!	!	!	!	!	!
=55-	=55-	=55-	=55-	=55-	=55-	=55-	=55-	=55-	=55-	=55-	=55-	=55-	=55-	=55-	=55-
2F/	e-	0c	e-	0cc	e-	1.cc	e-	1f	in-	1a	in-	1cc	in-	1ff	in-
2G/	.	.	.	.	.	.	.	.	.	.	.	.	.	.	.
2A/	.	.	.	.	.	.	.	1f\	-du-	1a\	-du-	1a\	-du-	1ff\	-du-
=56-	=56-	=56-	=56-	=56-	=56-	=56-	=56-	=56-	=56-	=56-	=56-	=56-	=56-	=56-	=56-
2B-/	.	.	.	.	.	2dd\	.	.	.	.	.	.	.	.	.
1c	-um	1c	-um	1cc	-um	1ee	-um	1c	-it	1g	-it	1cc	-it	1ee	-it
=57-	=57-	=57-	=57-	=57-	=57-	=57-	=57-	=57-	=57-	=57-	=57-	=57-	=57-	=57-	=57-
0f	e-	0c	e-	1.a	e-	0ff	e-	2F/	e-	0f	e-	0cc	e-	0aa	e-
.	.	.	.	.	.	.	.	2G/	.	.	.	.	.	.	.
.	.	.	.	.	.	.	.	2A/	.	.	.	.	.	.	.
=58-	=58-	=58-	=58-	=58-	=58-	=58-	=58-	=58-	=58-	=58-	=58-	=58-	=58-	=58-	=58-
.	.	.	.	2b-\	-um	.	.	2B-/	.	.	.	.	.	.	.
1c	-um	1g	-um	1cc	.	1ee	-um	1c	-um	1g	-um	1cc	-um	1gg	-um
*	*	*custos:g	*	*	*	*	*	*	*	*	*	*	*	*	*
!	!	!LO:LB:g=original	!	!	!	!	!	!	!	!	!	!	!	!	!
=59||-	=59||-	=59||-	=59||-	=59||-	=59||-	=59||-	=59||-	=59||-	=59||-	=59||-	=59||-	=59||-	=59||-	=59||-	=59||-
*M2/2	*	*	*	*M2/2	*	*M2/2	*	*M2/2	*	*M2/2	*	*M2/2	*	*M2/2	*
*met(C|)	*	*	*	*met(C|)	*	*met(C|)	*	*met(C|)	*	*met(C|)	*	*met(C|)	*	*met(C|)	*
2.g\	Do-	2.g\	Do-	2.b-\	Do-	2.dd\	Do-	2.G/	Do-	2.g\	Do-	2.dd\	Do-	2.gg\	Do-
4g\	-mi-	4g\	-mi-	4b-\	-mi-	4dd\	-mi-	4G/	-mi-	4g\	-mi-	4dd\	-mi-	4gg\	-mi-
=60-	=60-	=60-	=60-	=60-	=60-	=60-	=60-	=60-	=60-	=60-	=60-	=60-	=60-	=60-	=60-
1c	-nus	1g	-nus	1cc	-nus	1ee	-nus	1c	-nus	1g	-nus	1cc	-nus	1ee	-nus
=61-	=61-	=61-	=61-	=61-	=61-	=61-	=61-	=61-	=61-	=61-	=61-	=61-	=61-	=61-	=61-
2B-/	et	2f\	et	2.b-\	et	2.dd\	et	2B-/	et	2.b-\	et	2.dd\	et	0r	.
2B-/	ad	2f\	ad	.	.	.	.	2B-/	ad	.	.	.	.	.	.
.	.	.	.	4cc\	ad	4ee\	ad	.	.	4b-\	ad	4cc\	ad	.	.
=62-	=62-	=62-	=62-	=62-	=62-	=62-	=62-	=62-	=62-	=62-	=62-	=62-	=62-	=62-	=62-
2.B-/	por-	2.f\	por-	2.dd\	por-	2.ff\	por-	2.B-/	por-	2.f\	por-	2.b-\	por-	.	.
4f\	-tas	4f\	-tas	4cc\	-tas	4ff\	-tas	4F/	-tas	4f\	-tas	4a\	-tas	.	.
*	*	*	*	*	*	*custos:ee	*	*	*	*custos:g	*	*	*	*	*
!	!	!	!	!	!	!LO:LB:g=original	!	!	!	!LO:LB:g=original	!	!	!	!	!
=63-	=63-	=63-	=63-	=63-	=63-	=63-	=63-	=63-	=63-	=63-	=63-	=63-	=63-	=63-	=63-
4c/	pa-	4g\	pa-	4cc\	pa-	4ee\	pa-	4c/	pa-	4g\	pa-	4g/	pa-	1r	.
4c/	-ra-	4c/	-ra-	4cc\	-ra-	4ee\	-ra-	4c/	-ra-	4g\	-ra-	4g/	-ra-	.	.
2g\	-di-	2d/	-di-	2b-\	-di-	2dd\	-di-	8G/L	-di-	2g\	-di-	2g/	-di-	.	.
.	.	.	.	.	.	.	.	8A/	.	.	.	.	.	.	.
.	.	.	.	.	.	.	.	8B-/	.	.	.	.	.	.	.
.	.	.	.	.	.	.	.	8c/J	.	.	.	.	.	.	.
=64-	=64-	=64-	=64-	=64-	=64-	=64-	=64-	=64-	=64-	=64-	=64-	=64-	=64-	=64-	=64-
2d\	-si	2d/	-si	2a\	-si	2dd\	-si-	2d\	-si	2f\	-si	2a\	-si	2r	.
*	*	*	*	*	*	*	*	*	*	*	*	*custos:cc	*	*	*
!	!	!	!	!	!	!	!	!	!	!	!	!	!LO:LB:g=original	!	!
2r	.	2r	.	2r	.	2r	.	2r	.	2r	.	2r	.	4dd\	co-
.	.	.	.	.	.	.	.	.	.	.	.	.	.	4dd\	-ro-
*custos:c	*	*	*	*	*	*	*	*	*	*	*	*	*	*	*
!LO:LB:g=original	!	!	!	!	!	!	!	!	!	!	!	!	!	!	!
=65-	=65-	=65-	=65-	=65-	=65-	=65-	=65-	=65-	=65-	=65-	=65-	=65-	=65-	=65-	=65-
0r	.	0r	.	0r	.	0r	.	0r	.	0r	.	0r	.	2cc\	-na-
.	.	.	.	.	.	.	.	.	.	.	.	.	.	2b-/	-vit
=66-	=66-	=66-	=66-	=66-	=66-	=66-	=66-	=66-	=66-	=66-	=66-	=66-	=66-	=66-	=66-
.	.	.	.	.	.	.	.	.	.	.	.	.	.	1a	e-
*	*	*	*	*custos:cc	*	*	*	*custos:c	*	*	*	*	*	*custos:g	*
!	!	!	!	!LO:LB:g=original	!	!	!	!LO:LB:g=original	!	!	!	!	!	!LO:LB:g=original	!
=67-	=67-	=67-	=67-	=67-	=67-	=67-	=67-	=67-	=67-	=67-	=67-	=67-	=67-	=67-	=67-
2r	.	2r	.	2r	.	2r	.	2r	.	2r	.	2r	.	1g	-um
4c/	et	4c/	et	4cc\	et	4ee\	-et	4c/	et	4g\	et	4cc\	et	.	.
4c/	ad	4c/	ad	4cc\	ad	4ee\	ad	4c/	ad	4g\	ad	4cc\	ad	.	.
=68-	=68-	=68-	=68-	=68-	=68-	=68-	=68-	=68-	=68-	=68-	=68-	=68-	=68-	=68-	=68-
2.f\	por-	2.c/	por-	2.a\	por-	2.ff\	por-	2.F/	por-	2.a\	por-	2.cc\	por-	0r	.
4f\	-tas	4f\	-tas	4a\	-tas	4ff\	-tas	4F/	-tas	4a\	-tas	4cc\	-tas	.	.
=69-	=69-	=69-	=69-	=69-	=69-	=69-	=69-	=69-	=69-	=69-	=69-	=69-	=69-	=69-	=69-
4B-/	pa-	4f\	pa-	4b-\	pa-	4dd\	pa-	4c/	pa-	4f\	pa-	4dd\	pa-	.	.
4d\	-ra-	4d/	-ra-	4b-\	-ra-	4dd\	-ra-	4c/	-ra-	4f\	-ra-	4dd\	-ra-	.	.
2g\	-di-	2g\	-di-	2b-\	-di-	2dd\	-di-	8G/L	-di-	2g\	-di-	2b-\	-di-	.	.
.	.	.	.	.	.	.	.	8A/	.	.	.	.	.	.	.
.	.	.	.	.	.	.	.	8B-/	.	.	.	.	.	.	.
.	.	.	.	.	.	.	.	8c/J	.	.	.	.	.	.	.
=70-	=70-	=70-	=70-	=70-	=70-	=70-	=70-	=70-	=70-	=70-	=70-	=70-	=70-	=70-	=70-
!	!	!LO:TX:b:t=P:problem=# below	!	!	!	!	!	!	!	!	!	!	!	!	!
2d\	-si	2f#X\	-si	2a\	-si	2dd\	-si	2d\	-si	2a\	-si	2dd\	-si	2r	.
2r	.	2r	.	2r	.	2r	.	2r	.	2r	.	2r	.	4ff\	co-
.	.	.	.	.	.	.	.	.	.	.	.	.	.	4ff\	-ro-
=71-	=71-	=71-	=71-	=71-	=71-	=71-	=71-	=71-	=71-	=71-	=71-	=71-	=71-	=71-	=71-
0r	.	0r	.	0r	.	0r	.	0r	.	0r	.	0r	.	2ee-X\	-na-
.	.	.	.	.	.	.	.	.	.	.	.	.	.	2dd\	-vit
=72-	=72-	=72-	=72-	=72-	=72-	=72-	=72-	=72-	=72-	=72-	=72-	=72-	=72-	=72-	=72-
.	.	.	.	.	.	.	.	.	.	.	.	.	.	1cc	e-
=73-	=73-	=73-	=73-	=73-	=73-	=73-	=73-	=73-	=73-	=73-	=73-	=73-	=73-	=73-	=73-
2r	.	2r	.	2r	.	2r	.	2r	.	2r	.	1r	.	2b-/	-um.
4g\	co-	4g\	co-	4b-\	co-	4dd\	co-	4F/	co-	4g\	co-	.	.	2r	.
4c/	-ro-	4g\	-ro-	4cc\	-ro-	4ee\	-ro-	4c/	-ro-	4g\	-ro-	.	.	.	.
=74-	=74-	=74-	=74-	=74-	=74-	=74-	=74-	=74-	=74-	=74-	=74-	=74-	=74-	=74-	=74-
2f\	-na-	2fny\	-na-	2dd\	-na-	2ff\	-na-	2F/	-na-	2a\	-na-	2r	.	2r	.
2B-/	-vit	2f\	-vit	2b-\	-vit	2dd\	-vit	2B-/	-vit	2b-\	-vit	4b-\	co-	4dd\	co-
.	.	.	.	.	.	.	.	.	.	.	.	4cc\	-ro-	4eeny\	-ro-
*	*	*custos:f	*	*	*	*	*	*	*	*	*	*	*	*	*
!	!	!LO:LB:g=original	!	!	!	!	!	!	!	!	!	!	!	!	!
=75-	=75-	=75-	=75-	=75-	=75-	=75-	=75-	=75-	=75-	=75-	=75-	=75-	=75-	=75-	=75-
2F/	e-	2f\	e-	2a\	e-	2cc\	e-	2f\	e-	1f	e-	2cc\	-na-	2ff\	-na-
2B-/	-um	2f\	-um	2g/	-um	2b-/	-um	2B-/	-um	.	.	2b-\	-vit	2dd\	-vit
=76-	=76-	=76-	=76-	=76-	=76-	=76-	=76-	=76-	=76-	=76-	=76-	=76-	=76-	=76-	=76-
1r	.	1r	.	2r	.	1r	.	2r	.	2f\	-um	1a	e-	1cc	e-
.	.	.	.	4g/	co-	.	.	4e\	co-	2r	.	.	.	.	.
.	.	.	.	4a\	-ro-	.	.	4f\	-ro-	.	.	.	.	.	.
=77-	=77-	=77-	=77-	=77-	=77-	=77-	=77-	=77-	=77-	=77-	=77-	=77-	=77-	=77-	=77-
2r	.	2r	.	2b-\	-na-	2r	.	2g\	-na-	4e/	co-	2g/	-um	2b-/	-um
.	.	.	.	.	.	.	.	.	.	4f\	-ro-	.	.	.	.
4c/	co-	4g\	co-	2g/	-vit	4cc\	co-	2e\	-vit	2g\	-na-	4g/	co-	4ee\	co-
4c/	-ro-	4f\	-ro-	.	.	4dd\	-ro-	.	.	.	.	4g/	-ro-	4ff\	-ro-
=78-	=78-	=78-	=78-	=78-	=78-	=78-	=78-	=78-	=78-	=78-	=78-	=78-	=78-	=78-	=78-
4c/	-na-	2e\	-na-	0g	e-	2ee\	-na-	2.c/	e-	2.e/	-vit	2cc\	-na-	2gg\	-na-
4d\	.	.	.	.	.	.	.	.	.	.	.	.	.	.	.
4e\	-vit	2g\	-vit	.	.	2cc\	-vit	.	.	.	.	2.cc\	-vit	2ee\	-vit
4f\	.	.	.	.	.	.	.	8B-/L	.	4f\	e-	.	.	.	.
.	.	.	.	.	.	.	.	8A/J	.	.	.	.	.	.	.
*	*	*	*	*	*	*custos:dd	*	*	*	*custos:g	*	*	*	*	*
!	!	!	!	!	!	!LO:LB:g=original	!	!	!	!LO:LB:g=original	!	!	!	!	!
=79-	=79-	=79-	=79-	=79-	=79-	=79-	=79-	=79-	=79-	=79-	=79-	=79-	=79-	=79-	=79-
1g	e-	1g	e-	.	.	1dd	e-	1G	.	1g	-um	.	.	1dd	e-
.	.	.	.	.	.	.	.	.	.	.	.	8b-\L	.	.	.
.	.	.	.	.	.	.	.	.	.	.	.	8a\J	.	.	.
!	!	!	!	!	!	!	!	!	!	!	!	!LO:TX:b:t=P:problem=# below	!	!	!
!	!	!	!	!	!	!	!	!	!	!	!	!LO:N:acc=#	!	!	!
.	.	.	.	.	.	.	.	.	.	.	.	2bn\	e-	.	.
=80-	=80-	=80-	=80-	=80-	=80-	=80-	=80-	=80-	=80-	=80-	=80-	=80-	=80-	=80-	=80-
2c/	-um	2e\	-um	2g/	-um	2cc\	-um	2c/	-um	2g\	.	2cc\	-um	2ee\	-um
*	*	*	*	*	*	*	*	*custos:G	*	*	*	*custos:dd	*	*custos:gg	*
!	!	!	!	!	!	!	!	!LO:LB:g=original	!	!	!	!LO:PB:g=original	!	!LO:PB:g=original	!
4g\	co-	1g\	co-	1b-\	co-	1dd\	co-	1G/	co-	1g\	co-	1dd\	co-	2.gg\	co-
4f\	.	.	.	.	.	.	.	.	.	.	.	.	.	.	.
=81-	=81-	=81-	=81-	=81-	=81-	=81-	=81-	=81-	=81-	=81-	=81-	=81-	=81-	=81-	=81-
4e\	.	.	.	.	.	.	.	.	.	.	.	.	.	.	.
4d\	.	.	.	.	.	.	.	.	.	.	.	.	.	4ff\	-ro-
2c/	-ro-	2c/	-ro-	2cc\	-ro-	2ee\	-ro-	2c/	-ro-	2g\	-ro-	2cc\	-ro-	2ee\	-na-
=82-	=82-	=82-	=82-	=82-	=82-	=82-	=82-	=82-	=82-	=82-	=82-	=82-	=82-	=82-	=82-
4f\	-na-	2c/	-na-	2a\	-na-	1cc	-na-	2F/	-na-	1f	-na-	2cc\	-na-	2.ff\	-vit
4e\	.	.	.	.	.	.	.	.	.	.	.	.	.	.	.
4d\	.	2f\	-vit	2a\	-vit	.	.	2F/	-vit	.	.	2cc\	-vit	.	.
4c/	.	.	.	.	.	.	.	.	.	.	.	.	.	4ee\	e-
*custos:B-	*	*	*	*custos:b-	*	*	*	*	*	*	*	*	*	*	*
!LO:LB:g=original	!	!	!	!LO:LB:g=original	!	!	!	!	!	!	!	!	!	!	!
=83-	=83-	=83-	=83-	=83-	=83-	=83-	=83-	=83-	=83-	=83-	=83-	=83-	=83-	=83-	=83-
2.B-/	-vit	1.f	e-	1b-	e-	4dd\	-vit	4B-/	e-	2.f\	-vit	1b-y	e-	1dd	-um
.	.	.	.	.	.	4ee\	.	4c/	.	.	.	.	.	.	.
.	.	.	.	.	.	2ff\	e-	4d\	.	.	.	.	.	.	.
8A/L	.	.	.	.	.	.	.	4e\	.	4g\	.	.	.	.	.
8G/J	.	.	.	.	.	.	.	.	.	.	.	.	.	.	.
=84-	=84-	=84-	=84-	=84-	=84-	=84-	=84-	=84-	=84-	=84-	=84-	=84-	=84-	=84-	=84-
4F/	e-	.	.	1a	-um	1ff	-um	2.f\	.	1a	e-	1cc	-um	2cc\,>	.
4G/	.	.	.	.	.	.	.	.	.	.	.	.	.	.	.
4A/	.	2c/	-um	.	.	.	.	.	.	.	.	.	.	2ff\	e-
4B-/	.	.	.	.	.	.	.	8e\L	.	.	.	.	.	.	.
.	.	.	.	.	.	.	.	8d\J	.	.	.	.	.	.	.
=85-	=85-	=85-	=85-	=85-	=85-	=85-	=85-	=85-	=85-	=85-	=85-	=85-	=85-	=85-	=85-
2c/	-um	1c,>	.	1.cc	co-	2ee\,>	.	2c/	.	2g\	-um	1.cc	co-	2gg\	.
2.f\	co-	.	.	.	.	1cc\	co-	4F/	.	1a\	co-	.	.	2.ff\	.
.	.	.	.	.	.	.	.	4G/	.	.	.	.	.	.	.
=86-	=86-	=86-	=86-	=86-	=86-	=86-	=86-	=86-	=86-	=86-	=86-	=86-	=86-	=86-	=86-
.	.	1.c	co-	.	.	.	.	4A/	.	.	.	.	.	.	.
8e\L	-ro-	.	.	.	.	.	.	4B-/	.	.	.	.	.	8ee\L	.
8d\J	.	.	.	.	.	.	.	.	.	.	.	.	.	8dd\J	.
2c/	.	.	.	2g/	-ro-	2cc\	-ro-	2c/	-um	2g\	-ro-	2cc\	-ro-	2ee\	.
=87-	=87-	=87-	=87-	=87-	=87-	=87-	=87-	=87-	=87-	=87-	=87-	=87-	=87-	=87-	=87-
2f\	-na-	.	.	2a\	-na-	2cc\	-na-	2F/	.	2f\	-na-	4a\	-na-	2ff\,>	-um
.	.	.	.	.	.	.	.	.	.	.	.	4b-\	.	.	.
2c/	-vit	2c/	-ro-	2g/	-vit	2cc\	-vit	2c/	e-	2g\	-vit	2.cc\	-vit	4ee\	co-
.	.	.	.	.	.	.	.	.	.	.	.	.	.	4ff\	-ro-
=88-	=88-	=88-	=88-	=88-	=88-	=88-	=88-	=88-	=88-	=88-	=88-	=88-	=88-	=88-	=88-
4g\	e-	1g	-na-	1g	e-	1dd	e-	1G	.	1g	e-	.	.	1gg	-na-
4f\	.	.	.	.	.	.	.	.	.	.	.	8b-\L	.	.	.
.	.	.	.	.	.	.	.	.	.	.	.	8a\J	.	.	.
!	!	!	!	!	!	!	!	!	!	!	!	!LO:TX:b:t=P:problem=# below	!	!	!
!	!	!	!	!	!	!	!	!	!	!	!	!LO:N:acc=#	!	!	!
4e\	.	.	.	.	.	.	.	.	.	.	.	2bn\	e-	.	.
4d\	.	.	.	.	.	.	.	.	.	.	.	.	.	.	.
=89-	=89-	=89-	=89-	=89-	=89-	=89-	=89-	=89-	=89-	=89-	=89-	=89-	=89-	=89-	=89-
2c/	-um	2g\	-vit	2g/	-um	2ee\	-um	2c/	-um	2g\	-um	2cc\	-um	2ee\,>	-vit
2f\	co-	1c/	co-	1a\	co-	1cc\	co-	1F/	co-	1f\	co-	1cc\	co-	1ff\	co-
=90-	=90-	=90-	=90-	=90-	=90-	=90-	=90-	=90-	=90-	=90-	=90-	=90-	=90-	=90-	=90-
4f\	-ro-	.	.	.	.	.	.	.	.	.	.	.	.	.	.
4e\	.	.	.	.	.	.	.	.	.	.	.	.	.	.	.
4d\	.	2f\	-ro-	2a\	-ro-	2cc\	-ro-	2F/	-ro-	2f\	-ro-	2cc\	-ro-	2ff\	-ro-
4c/	.	.	.	.	.	.	.	.	.	.	.	.	.	.	.
=91-	=91-	=91-	=91-	=91-	=91-	=91-	=91-	=91-	=91-	=91-	=91-	=91-	=91-	=91-	=91-
2.B-/	-na-	1.f	-na-	1b-	-na-	1dd	-na-	4B-/	-na-	1.f	-na-	1b-y	-na-	1ff	-na-
.	.	.	.	.	.	.	.	4c/	.	.	.	.	.	.	.
.	.	.	.	.	.	.	.	4d\	.	.	.	.	.	.	.
8A/L	.	.	.	.	.	.	.	4e\	.	.	.	.	.	.	.
8G/J	.	.	.	.	.	.	.	.	.	.	.	.	.	.	.
=92-	=92-	=92-	=92-	=92-	=92-	=92-	=92-	=92-	=92-	=92-	=92-	=92-	=92-	=92-	=92-
4F/	-vit	.	.	1a	-vit	1cc	-vit	2.f\	-vit	.	.	1.cc	-vit	2cc\	-vit
4G/	.	.	.	.	.	.	.	.	.	.	.	.	.	.	.
4A/	.	2c/	-vit	.	.	.	.	.	.	2a\	-vit	.	.	2.ff\	.
4B-/	.	.	.	.	.	.	.	8e\L	.	.	.	.	.	.	.
.	.	.	.	.	.	.	.	8d\J	.	.	.	.	.	.	.
=93-	=93-	=93-	=93-	=93-	=93-	=93-	=93-	=93-	=93-	=93-	=93-	=93-	=93-	=93-	=93-
1c	e-	1c	e-	2r	.	1cc	e-	1c	e-	1g	e-	.	.	.	.
.	.	.	.	.	.	.	.	.	.	.	.	.	.	8ee\L	e-
.	.	.	.	.	.	.	.	.	.	.	.	.	.	8dd\J	.
.	.	.	.	2cc\	e-	.	.	.	.	.	.	2g/	e-	2ee\	.
=94-	=94-	=94-	=94-	=94-	=94-	=94-	=94-	=94-	=94-	=94-	=94-	=94-	=94-	=94-	=94-
0f;;	-um.	0c;;	-um.	0cc;;	-um.	0cc;;	-um.	0F;;	-um	0f;;	-um.	0a;;	-um.	0ff;;	-um.
=-	=-	=-	=-	=-	=-	=-	=-	=-	=-	=-	=-	=-	=-	=-	=-
*-	*-	*-	*-	*-	*-	*-	*-	*-	*-	*-	*-	*-	*-	*-	*-
!!!system-decoration: [(g1)][(g2)]
!!!RDF**kern: > = above
!!!RDF**kern: < = below
!!!ENC: Andrzej Gręziak
!!!END: 2021-10-12
!!!EED: Jędrzej Mróz
!!!ESR: 2021-10-20
!!!YEC: Copyright 2022 Narodowy Instytut Fryderyka Chopina (https://polishscores.org)
!!!YEM: License CC-BY-4.0 (https://creativecommons.org/licenses/by/4.0)
